svgs/al_dawaa.svg

<svg width="192" height="192" viewBox="0 0 192 192" fill="none" xmlns="http://www.w3.org/2000/svg">
<path d="M83.9572 45.85C90.5432 45.85 95.8822 40.511 95.8822 33.925C95.8822 27.3389 90.5432 22 83.9572 22C77.3711 22 72.0322 27.3389 72.0322 33.925C72.0322 40.511 77.3711 45.85 83.9572 45.85Z" stroke="black" stroke-width="10" stroke-linecap="round" stroke-linejoin="round"/>
<path d="M89.8474 125.805C66.01 112.841 55.8268 98.9883 79.2763 81.4413C86.3194 76.1711 101.42 67.7074 113.369 48.2283C119.417 52.4599 123.189 57.1116 124.854 61.6444C127.291 68.2858 122.891 75.0638 119.121 79.1082C111.409 87.3796 104.272 91.0899 98.7065 95.514C89.8696 103.742 83.6979 114.68 89.8474 125.805Z" stroke="black" stroke-width="12" stroke-linecap="round" stroke-linejoin="round"/>
<path d="M89.2746 170C90.3494 147.01 141.47 139.126 121.873 105.738C115.482 111.95 108.844 115.82 103.412 120.084C92.6739 128.51 82.3675 139.378 79.8927 142.767C72.1954 155.319 80.7062 165.712 89.2746 170Z" stroke="black" stroke-width="12" stroke-linecap="round" stroke-linejoin="round"/>
<path d="M97.8574 96.2382C104.12 102.044 114.382 104.704 122.358 104.821" stroke="black" stroke-width="10" stroke-linecap="round" stroke-linejoin="round"/>
</svg>

<svg width="192" height="192" viewBox="0 0 192 192" fill="none" xmlns="http://www.w3.org/2000/svg"><path d="M84 45c6.627 0 12-5.373 12-12 0-6.628-5.373-12-12-12s-12 5.372-12 12c0 6.627 5.373 12 12 12Z" stroke="#000" stroke-width="10" stroke-linecap="round" stroke-linejoin="round"/><path d="M89.847 125.805c-23.837-12.964-34.02-26.817-10.57-44.364 7.042-5.27 22.143-13.734 34.092-33.213 6.048 4.232 9.82 8.884 11.485 13.416 2.437 6.642-1.963 13.42-5.733 17.464-7.712 8.272-14.849 11.982-20.414 16.406-8.837 8.228-15.01 19.166-8.86 30.291ZM89.275 170c1.074-22.99 52.195-30.874 32.598-64.262-6.391 6.212-13.029 10.082-18.461 14.346-10.738 8.426-21.044 19.294-23.52 22.683-7.697 12.552.814 22.945 9.383 27.233Z" stroke="#000" stroke-width="12" stroke-linecap="round" stroke-linejoin="round"/><path d="M97.857 96.238c6.263 5.806 16.525 8.466 24.501 8.583" stroke="#000" stroke-width="10" stroke-linecap="round" stroke-linejoin="round"/></svg>
